www/assets/icons/water.svg

<svg xmlns="http://www.w3.org/2000/svg" width="24" height="24" viewBox="0 0 24 24" fill='currentColor'><path d="M5.35 12.5c1.19 0 1.42 1 3.33 1 1.95 0 2.09-1 3.33-1 1.19 0 1.42 1 3.33 1 1.95 0 2.09-1 3.33-1 1.19 0 1.4.98 3.31 1v-2c-1.19 0-1.42-1-3.33-1-1.95 0-2.09 1-3.33 1-1.19 0-1.42-1-3.33-1-1.95 0-2.09 1-3.33 1-1.19 0-1.42-1-3.33-1-1.95 0-2.09 1-3.33 1v2c1.9 0 2.17-1 3.35-1m13.32 2c-1.95 0-2.09 1-3.33 1-1.19 0-1.42-1-3.33-1-1.95 0-2.1 1-3.34 1s-1.38-1-3.33-1-2.1 1-3.34 1v2c1.95 0 2.11-1 3.34-1 1.24 0 1.38 1 3.33 1s2.1-1 3.34-1c1.19 0 1.42 1 3.33 1 1.94 0 2.09-1 3.33-1 1.19 0 1.42 1 3.33 1v-2c-1.24 0-1.38-1-3.33-1m-13.32-6c1.19 0 1.42 1 3.33 1 1.95 0 2.09-1 3.33-1 1.19 0 1.42 1 3.33 1 1.95 0 2.09-1 3.33-1 1.19 0 1.4.98 3.31 1v-2c-1.19 0-1.42-1-3.33-1-1.95 0-2.09 1-3.33 1-1.19 0-1.42-1-3.33-1-1.95 0-2.09 1-3.33 1-1.19 0-1.42-1-3.33-1-1.95 0-2.09 1-3.33 1v2c1.9 0 2.17-1 3.35-1"/></svg>

<svg width="24" height="24" viewBox="0 0 24 24" xmlns="http://www.w3.org/2000/svg" fill='currentColor'><path d="M5.35 12.5C6.54 12.5 6.77 13.5 8.68 13.5C10.63 13.5 10.77 12.5 12.01 12.5C13.2 12.5 13.43 13.5 15.34 13.5C17.29 13.5 17.43 12.5 18.67 12.5C19.86 12.5 20.07 13.48 21.98 13.5V11.5C20.79 11.5 20.56 10.5 18.65 10.5C16.7 10.5 16.56 11.5 15.32 11.5C14.13 11.5 13.9 10.5 11.99 10.5C10.04 10.5 9.9 11.5 8.66 11.5C7.47 11.5 7.24 10.5 5.33 10.5C3.38 10.5 3.24 11.5 2 11.5V13.5C3.9 13.5 4.17 12.5 5.35 12.5ZM18.67 14.5C16.72 14.5 16.58 15.5 15.34 15.5C14.15 15.5 13.92 14.5 12.01 14.5C10.06 14.5 9.91 15.5 8.67 15.5C7.43 15.5 7.29 14.5 5.34 14.5C3.39 14.5 3.24 15.5 2 15.5V17.5C3.95 17.5 4.11 16.5 5.34 16.5C6.58 16.5 6.72 17.5 8.67 17.5C10.62 17.5 10.77 16.5 12.01 16.5C13.2 16.5 13.43 17.5 15.34 17.5C17.28 17.5 17.43 16.5 18.67 16.5C19.86 16.5 20.09 17.5 22 17.5V15.5C20.76 15.5 20.62 14.5 18.67 14.5ZM5.35 8.5C6.54 8.5 6.77 9.5 8.68 9.5C10.63 9.5 10.77 8.5 12.01 8.5C13.2 8.5 13.43 9.5 15.34 9.5C17.29 9.5 17.43 8.5 18.67 8.5C19.86 8.5 20.07 9.48 21.98 9.5V7.5C20.79 7.5 20.56 6.5 18.65 6.5C16.7 6.5 16.56 7.5 15.32 7.5C14.13 7.5 13.9 6.5 11.99 6.5C10.04 6.5 9.9 7.5 8.66 7.5C7.47 7.5 7.24 6.5 5.33 6.5C3.38 6.5 3.24 7.5 2 7.5V9.5C3.9 9.5 4.17 8.5 5.35 8.5Z"/></svg>
